static/img/kroki/d1c4d454194555eea2e28c05d00e4363.svg

<?xml version="1.0" encoding="us-ascii" standalone="no"?><svg xmlns="http://www.w3.org/2000/svg" xmlns:xlink="http://www.w3.org/1999/xlink" contentStyleType="text/css" height="374px" preserveAspectRatio="none" style="width:355px;height:374px;" version="1.1" viewBox="0 0 355 374" width="355px" zoomAndPan="magnify"><defs/><g><!--class digitalocean_alert_policy--><g id="elem_digitalocean_alert_policy"><rect codeLine="23" fill="#3D176E" height="39.7891" id="digitalocean_alert_policy" rx="2.5" ry="2.5" style="stroke:#000D19;stroke-width:0.5;" width="248" x="7" y="328.58"/><ellipse cx="22" cy="348.4745" fill="#ADD1B2" rx="11" ry="11" style="stroke:#181818;stroke-width:1.0;"/><path d="M24.9688,354.1152 Q24.3906,354.412 23.75,354.5527 Q23.1094,354.7089 22.4063,354.7089 Q19.9063,354.7089 18.5781,353.0683 Q17.2656,351.412 17.2656,348.287 Q17.2656,345.162 18.5781,343.5058 Q19.9063,341.8495 22.4063,341.8495 Q23.1094,341.8495 23.75,342.0058 Q24.4063,342.162 24.9688,342.4589 L24.9688,345.1777 Q24.3438,344.5995 23.75,344.3339 Q23.1563,344.0527 22.5313,344.0527 Q21.1875,344.0527 20.5,345.1308 Q19.8125,346.1933 19.8125,348.287 Q19.8125,350.3808 20.5,351.4589 Q21.1875,352.5214 22.5313,352.5214 Q23.1563,352.5214 23.75,352.2558 Q24.3438,351.9745 24.9688,351.3964 L24.9688,354.1152 Z " fill="#000000"/><text fill="#D9B8FF" font-family="Helvetica" font-size="17" lengthAdjust="spacing" textLength="206" x="41" y="354.3598">digitalocean_alert_policy</text></g><!--class digitalocean_resource--><g id="elem_digitalocean_resource"><rect codeLine="26" fill="#3D176E" height="39.7891" id="digitalocean_resource" rx="2.5" ry="2.5" style="stroke:#000D19;stroke-width:0.5;" width="223" x="125.5" y="167.79"/><ellipse cx="140.5" cy="187.6845" fill="#ADD1B2" rx="11" ry="11" style="stroke:#181818;stroke-width:1.0;"/><path d="M143.4688,193.3252 Q142.8906,193.622 142.25,193.7627 Q141.6094,193.9189 140.9063,193.9189 Q138.4063,193.9189 137.0781,192.2783 Q135.7656,190.622 135.7656,187.497 Q135.7656,184.372 137.0781,182.7158 Q138.4063,181.0595 140.9063,181.0595 Q141.6094,181.0595 142.25,181.2158 Q142.9063,181.372 143.4688,181.6689 L143.4688,184.3877 Q142.8438,183.8095 142.25,183.5439 Q141.6563,183.2627 141.0313,183.2627 Q139.6875,183.2627 139,184.3408 Q138.3125,185.4033 138.3125,187.497 Q138.3125,189.5908 139,190.6689 Q139.6875,191.7314 141.0313,191.7314 Q141.6563,191.7314 142.25,191.4658 Q142.8438,191.1845 143.4688,190.6064 L143.4688,193.3252 Z " fill="#000000"/><text fill="#D9B8FF" font-family="Helvetica" font-size="17" lengthAdjust="spacing" textLength="181" x="159.5" y="193.5698">digitalocean_resource</text></g><!--class resource--><g id="elem_resource"><rect codeLine="29" fill="#3D176E" height="39.7891" id="resource" rx="2.5" ry="2.5" style="stroke:#000D19;stroke-width:0.5;" width="113" x="51.5" y="7"/><ellipse cx="66.5" cy="26.8945" fill="#ADD1B2" rx="11" ry="11" style="stroke:#181818;stroke-width:1.0;"/><path d="M69.4688,32.5352 Q68.8906,32.832 68.25,32.9727 Q67.6094,33.1289 66.9063,33.1289 Q64.4063,33.1289 63.0781,31.4883 Q61.7656,29.832 61.7656,26.707 Q61.7656,23.582 63.0781,21.9258 Q64.4063,20.2695 66.9063,20.2695 Q67.6094,20.2695 68.25,20.4258 Q68.9063,20.582 69.4688,20.8789 L69.4688,23.5977 Q68.8438,23.0195 68.25,22.7539 Q67.6563,22.4727 67.0313,22.4727 Q65.6875,22.4727 65,23.5508 Q64.3125,24.6133 64.3125,26.707 Q64.3125,28.8008 65,29.8789 Q65.6875,30.9414 67.0313,30.9414 Q67.6563,30.9414 68.25,30.6758 Q68.8438,30.3945 69.4688,29.8164 L69.4688,32.5352 Z " fill="#000000"/><text fill="#D9B8FF" font-family="Helvetica" font-size="17" lengthAdjust="spacing" textLength="71" x="85.5" y="32.7798">resource</text></g><!--reverse link digitalocean_resource to digitalocean_alert_policy--><g id="link_digitalocean_resource_digitalocean_alert_policy"><path codeLine="32" d="M214.2175,222.8116 C193.8475,253.3316 164.23,297.69 143.83,328.25 " fill="none" id="digitalocean_resource-backto-digitalocean_alert_policy" style="stroke:#FFAF37;stroke-width:2.0;"/><polygon fill="none" points="224.21,207.84,209.2269,219.4808,219.208,226.1425,224.21,207.84" style="stroke:#FFAF37;stroke-width:2.0;"/></g><!--reverse link resource to digitalocean_alert_policy--><g id="link_resource_digitalocean_alert_policy"><path codeLine="33" d="M106.1438,65.0706 C104.6138,97.9706 103.24,149.28 108,207.58 C111.55,251 121.18,301.26 126.79,328.14 " fill="none" id="resource-backto-digitalocean_alert_policy" style="stroke:#FFAF37;stroke-width:2.0;"/><polygon fill="none" points="106.98,47.09,100.1503,64.7918,112.1373,65.3493,106.98,47.09" style="stroke:#FFAF37;stroke-width:2.0;"/></g><!--reverse link resource to digitalocean_resource--><g id="link_resource_digitalocean_resource"><path codeLine="34" d="M134.9086,61.0217 C159.6986,91.5417 196.56,136.9 221.38,167.46 " fill="none" id="resource-backto-digitalocean_resource" style="stroke:#FFAF37;stroke-width:2.0;"/><polygon fill="none" points="123.56,47.05,130.2514,64.8046,139.5658,57.2389,123.56,47.05" style="stroke:#FFAF37;stroke-width:2.0;"/></g><!--SRC=[hT1DJm8n40RW-_wA9fmt0Oa2YHSaCNeXHhoJsNOApNRRpNHMidxyTqN4bFs0YzTvdtJUwTOe55YKN8i2Ymmf924thWI2Gio9_6xXhISnq1hqUD8CxxtZYs091Oe7jA_8Ha9Jl6oDp1s68AwYw0valY5VENLudWbS-8xGSQGM5aAOCvF9AiQeZ9fbKwsRildeOAn6anjiCKyAwPSCXqCrcZN9nLLdx_uJA_E6OXH_sj8pjcgsLloeiott8YhPElIOztPy0gMCsuZhQFPyw4GEwMI-seBokxtMO4Ey9Z0IUgvBNBIkmjbKwKadVkp3YTn_dL1cOnYibmXk3HQ9rwMtHjRYFKa-kn1Xy1L9ZC7fh9lVVgHfshyl-HTup98l]--></g></svg>

<svg xmlns="http://www.w3.org/2000/svg" width="355" height="374" viewBox="0 0 355 374"><rect width="248" height="39.789" x="7" y="328.58" fill="#3D176E" rx="2.5" ry="2.5" style="stroke:#000d19;stroke-width:.5"/><circle cx="22" cy="348.474" r="11" fill="#ADD1B2" style="stroke:#181818;stroke-width:1"/><path d="M24.969 354.115q-.578.297-1.219.438-.64.156-1.344.156-2.5 0-3.828-1.64-1.312-1.657-1.312-4.782t1.312-4.781q1.328-1.656 3.828-1.656.703 0 1.344.156.656.156 1.219.453v2.719q-.625-.579-1.219-.844-.594-.281-1.219-.281-1.343 0-2.031 1.078-.687 1.062-.687 3.156t.687 3.172q.688 1.062 2.031 1.062.625 0 1.219-.265.594-.281 1.219-.86z"/><text x="41" y="354.36" fill="#D9B8FF" font-family="Helvetica" font-size="17" textLength="206">digitalocean_alert_policy</text><rect width="223" height="39.789" x="125.5" y="167.79" fill="#3D176E" rx="2.5" ry="2.5" style="stroke:#000d19;stroke-width:.5"/><circle cx="140.5" cy="187.685" r="11" fill="#ADD1B2" style="stroke:#181818;stroke-width:1"/><path d="M143.469 193.325q-.578.297-1.219.438-.64.156-1.344.156-2.5 0-3.828-1.64-1.312-1.657-1.312-4.782t1.312-4.781q1.328-1.656 3.828-1.656.703 0 1.344.156.656.156 1.219.453v2.719q-.625-.578-1.219-.844-.594-.281-1.219-.281-1.344 0-2.031 1.078-.687 1.062-.687 3.156t.687 3.172q.688 1.062 2.031 1.062.625 0 1.219-.265.594-.281 1.219-.86z"/><text x="159.5" y="193.57" fill="#D9B8FF" font-family="Helvetica" font-size="17" textLength="181">digitalocean_resource</text><rect width="113" height="39.789" x="51.5" y="7" fill="#3D176E" rx="2.5" ry="2.5" style="stroke:#000d19;stroke-width:.5"/><circle cx="66.5" cy="26.895" r="11" fill="#ADD1B2" style="stroke:#181818;stroke-width:1"/><path d="M69.469 32.535q-.578.297-1.219.438-.64.156-1.344.156-2.5 0-3.828-1.64-1.312-1.657-1.312-4.782t1.312-4.781q1.328-1.656 3.828-1.656.703 0 1.344.156.656.156 1.219.453v2.719q-.625-.578-1.219-.844-.594-.281-1.219-.281-1.344 0-2.031 1.078-.687 1.062-.687 3.156T65 29.879q.688 1.062 2.031 1.062.625 0 1.219-.265.594-.281 1.219-.86z"/><text x="85.5" y="32.78" fill="#D9B8FF" font-family="Helvetica" font-size="17" textLength="71">resource</text><path fill="none" d="M214.218 222.812c-20.37 30.52-49.988 74.878-70.388 105.438m80.38-120.41-14.983 11.64 9.981 6.663z" style="stroke:#ffaf37;stroke-width:2"/><g fill="none"><path d="M106.144 65.07c-1.53 32.9-2.904 84.21 1.856 142.51 3.55 43.42 13.18 93.68 18.79 120.56" style="stroke:#ffaf37;stroke-width:2"/><path d="m106.98 47.09-6.83 17.702 11.987.557z" style="stroke:#ffaf37;stroke-width:2"/></g><path fill="none" d="M134.909 61.022c24.79 30.52 61.651 75.878 86.471 106.438M123.56 47.05l6.691 17.755 9.315-7.566z" style="stroke:#ffaf37;stroke-width:2"/></svg>
